assets/images/home_invite_friends.svg

<?xml version="1.0" encoding="UTF-8"?>
<svg width="147px" height="149px" viewBox="0 0 147 149" version="1.1" xmlns="http://www.w3.org/2000/svg" xmlns:xlink="http://www.w3.org/1999/xlink">
    <!-- Generator: Sketch 42 (36781) - http://www.bohemiancoding.com/sketch -->
    <title>home_invite_friends</title>
    <desc>Created with Sketch.</desc>
    <defs>
        <path d="M0.706,27.531 C0.706,42.319 12.693,54.306 27.481,54.306 C42.27,54.306 54.256,42.319 54.256,27.531 C54.256,12.743 42.27,0.756 27.481,0.756 C12.693,0.756 0.706,12.743 0.706,27.531 Z" id="path-1"></path>
    </defs>
    <g id="Symbols" stroke="none" stroke-width="1" fill="none" fill-rule="evenodd">
        <g id="home_invite_friends">
            <g id="Page-1">
                <g id="Group-10" transform="translate(0.000000, 0.633000)">
                    <g id="Group-3" fill="#4C5964">
                        <path d="M146.939,73.8369 C146.939,114.4129 114.046,147.3059 73.47,147.3059 C32.894,147.3059 0,114.4129 0,73.8369 C0,33.2609 32.894,0.3669 73.47,0.3669 C114.046,0.3669 146.939,33.2609 146.939,73.8369" id="Fill-1"></path>
                    </g>
                    <path d="M99.1147,27.2358 C107.4457,27.2358 114.1997,34.0568 114.1997,42.4698 C114.1997,46.4958 112.6527,50.1558 110.1287,52.8798 C109.7747,53.2638 109.9117,53.1968 109.5167,53.5408 L110.1467,53.9678 C133.0127,64.0208 127.1497,80.9138 127.1497,80.9138 C112.4257,85.6288 99.1367,84.9018 99.1367,84.9018 L98.8027,84.9018 C98.8027,84.9018 85.5107,85.6288 70.7887,80.9138 C70.7887,80.9138 64.9267,64.0208 87.7907,53.9678 L88.4197,53.5408 C88.0267,53.1968 88.1667,53.2638 87.8127,52.8798 C85.2857,50.1558 83.7417,46.4958 83.7417,42.4698 C83.7417,34.0568 90.4937,27.2358 98.8267,27.2358 L99.1147,27.2358 Z" id="Fill-4" fill="#96A5B1"></path>
                    <path d="M48.1147,27.2358 C56.4457,27.2358 63.1997,34.0568 63.1997,42.4698 C63.1997,46.4958 61.6527,50.1558 59.1287,52.8798 C58.7747,53.2638 58.9117,53.1968 58.5167,53.5408 L59.1467,53.9678 C82.0127,64.0208 76.1497,80.9138 76.1497,80.9138 C61.4257,85.6288 48.1367,84.9018 48.1367,84.9018 L47.8027,84.9018 C47.8027,84.9018 34.5107,85.6288 19.7887,80.9138 C19.7887,80.9138 13.9267,64.0208 36.7907,53.9678 L37.4197,53.5408 C37.0267,53.1968 37.1667,53.2638 36.8127,52.8798 C34.2857,50.1558 32.7417,46.4958 32.7417,42.4698 C32.7417,34.0568 39.4937,27.2358 47.8267,27.2358 L48.1147,27.2358 Z" id="Fill-6" fill="#96A5B1"></path>
                    <path d="M73.6577,35.395 C84.4457,35.395 93.1907,44.228 93.1907,55.121 C93.1907,60.335 91.1897,65.075 87.9187,68.601 C87.4597,69.098 87.6387,69.012 87.1297,69.456 L87.9447,70.01 C117.5527,83.026 109.9587,104.901 109.9587,104.901 C90.8937,111.006 73.6887,110.064 73.6887,110.064 L73.2537,110.064 C73.2537,110.064 56.0447,111.006 36.9797,104.901 C36.9797,104.901 29.3897,83.026 58.9957,70.01 L59.8087,69.456 C59.3017,69.012 59.4827,69.098 59.0237,68.601 C55.7537,65.075 53.7517,60.335 53.7517,55.121 C53.7517,44.228 62.4957,35.395 73.2837,35.395 L73.6577,35.395 Z" id="Fill-8" fill="#FEFEFE"></path>
                </g>
                <g id="Group-13" transform="translate(87.000000, 94.000000)">
                    <mask id="mask-2" fill="white">
                        <use xlink:href="#path-1"></use>
                    </mask>
                    <use id="Clip-12" class="color-i-fill" fill="#FE5E00" xlink:href="#path-1"></use>
                </g>
                <g id="Group-18" transform="translate(98.000000, 110.000000)" stroke="#FEFEFE" stroke-width="2" stroke-linecap="round" stroke-linejoin="round">
                    <path d="M32.2954,21.7427 C32.2954,22.1537 31.9614,22.4867 31.5514,22.4867 L1.4104,22.4867 C0.9994,22.4867 0.6664,22.1537 0.6664,21.7427 L0.6664,1.3197 C0.6664,0.9087 0.9994,0.5747 1.4104,0.5747 L31.5514,0.5747 C31.9614,0.5747 32.2954,0.9087 32.2954,1.3197 L32.2954,21.7427 Z" id="Stroke-14"></path>
                    <polyline id="Stroke-16" points="32.2026 1.5024 16.4806 17.2254 0.7576 1.5024"></polyline>
                </g>
            </g>
        </g>
    </g>
</svg>

<?xml version="1.0" encoding="UTF-8" standalone="no"?>
<svg
   xmlns:dc="http://purl.org/dc/elements/1.1/"
   xmlns:cc="http://creativecommons.org/ns#"
   xmlns:rdf="http://www.w3.org/1999/02/22-rdf-syntax-ns#"
   xmlns:svg="http://www.w3.org/2000/svg"
   xmlns="http://www.w3.org/2000/svg"
   xmlns:xlink="http://www.w3.org/1999/xlink"
   xmlns:sodipodi="http://sodipodi.sourceforge.net/DTD/sodipodi-0.dtd"
   xmlns:inkscape="http://www.inkscape.org/namespaces/inkscape"
   width="149"
   height="149"
   viewBox="0 0 149 149"
   version="1.1"
   id="svg26"
   sodipodi:docname="home_invite_friends.svg"
   inkscape:version="0.92.2 2405546, 2018-03-11">
  <metadata
     id="metadata30">
    <rdf:RDF>
      <cc:Work
         rdf:about="">
        <dc:format>image/svg+xml</dc:format>
        <dc:type
           rdf:resource="http://purl.org/dc/dcmitype/StillImage" />
        <dc:title>home_invite_friends</dc:title>
      </cc:Work>
    </rdf:RDF>
  </metadata>
  <sodipodi:namedview
     pagecolor="#ffffff"
     bordercolor="#666666"
     borderopacity="1"
     objecttolerance="10"
     gridtolerance="10"
     guidetolerance="10"
     inkscape:pageopacity="0"
     inkscape:pageshadow="2"
     inkscape:window-width="868"
     inkscape:window-height="480"
     id="namedview28"
     showgrid="false"
     inkscape:zoom="1.5838926"
     inkscape:cx="73.5"
     inkscape:cy="74.5"
     inkscape:window-x="0"
     inkscape:window-y="35"
     inkscape:window-maximized="0"
     inkscape:current-layer="svg26" />
  <!-- Generator: Sketch 42 (36781) - http://www.bohemiancoding.com/sketch -->
  <title
     id="title2">home_invite_friends</title>
  <desc
     id="desc4">Created with Sketch.</desc>
  <defs
     id="defs7">
    <path
       d="m 0.706,27.531 c 0,14.788 11.987,26.775 26.775,26.775 14.789,0 26.775,-11.987 26.775,-26.775 C 54.256,12.743 42.27,0.756 27.481,0.756 12.693,0.756 0.706,12.743 0.706,27.531 Z"
       id="path-1"
       inkscape:connector-curvature="0" />
  </defs>
  <g
     id="Symbols"
     style="fill:none;fill-rule:evenodd;stroke:none;stroke-width:1"
     transform="translate(1)">
    <g
       id="home_invite_friends">
      <g
         id="Page-1">
        <g
           id="Group-10"
           transform="translate(0,0.633)">
          <g
             id="Group-3"
             style="fill:#4c5964">
            <path
               d="m 146.939,73.8369 c 0,40.576 -32.893,73.469 -73.469,73.469 -40.576,0 -73.47,-32.893 -73.47,-73.469 0,-40.576 32.894,-73.47 73.47,-73.47 40.576,0 73.469,32.894 73.469,73.47"
               id="Fill-1"
               inkscape:connector-curvature="0" />
          </g>
          <path
             d="m 99.1147,27.2358 c 8.331,0 15.085,6.821 15.085,15.234 0,4.026 -1.547,7.686 -4.071,10.41 -0.354,0.384 -0.217,0.317 -0.612,0.661 l 0.63,0.427 c 22.866,10.053 17.003,26.946 17.003,26.946 -14.724,4.715 -28.013,3.988 -28.013,3.988 h -0.334 c 0,0 -13.292,0.727 -28.014,-3.988 0,0 -5.862,-16.893 17.002,-26.946 l 0.629,-0.427 c -0.393,-0.344 -0.253,-0.277 -0.607,-0.661 -2.527,-2.724 -4.071,-6.384 -4.071,-10.41 0,-8.413 6.752,-15.234 15.085,-15.234 z"
             id="Fill-4"
             inkscape:connector-curvature="0"
             style="fill:#96a5b1" />
          <path
             d="m 48.1147,27.2358 c 8.331,0 15.085,6.821 15.085,15.234 0,4.026 -1.547,7.686 -4.071,10.41 -0.354,0.384 -0.217,0.317 -0.612,0.661 l 0.63,0.427 c 22.866,10.053 17.003,26.946 17.003,26.946 -14.724,4.715 -28.013,3.988 -28.013,3.988 h -0.334 c 0,0 -13.292,0.727 -28.014,-3.988 0,0 -5.862,-16.893 17.002,-26.946 l 0.629,-0.427 c -0.393,-0.344 -0.253,-0.277 -0.607,-0.661 -2.527,-2.724 -4.071,-6.384 -4.071,-10.41 0,-8.413 6.752,-15.234 15.085,-15.234 z"
             id="Fill-6"
             inkscape:connector-curvature="0"
             style="fill:#96a5b1" />
          <path
             d="m 73.6577,35.395 c 10.788,0 19.533,8.833 19.533,19.726 0,5.214 -2.001,9.954 -5.272,13.48 -0.459,0.497 -0.28,0.411 -0.789,0.855 l 0.815,0.554 c 29.608,13.016 22.014,34.891 22.014,34.891 -19.065,6.105 -36.27,5.163 -36.27,5.163 h -0.435 c 0,0 -17.209,0.942 -36.274,-5.163 0,0 -7.59,-21.875 22.016,-34.891 l 0.813,-0.554 c -0.507,-0.444 -0.326,-0.358 -0.785,-0.855 -3.27,-3.526 -5.272,-8.266 -5.272,-13.48 0,-10.893 8.744,-19.726 19.532,-19.726 z"
             id="Fill-8"
             inkscape:connector-curvature="0"
             style="fill:#fefefe" />
        </g>
        <g
           id="Group-13"
           transform="translate(87,94)">
          <mask
             id="mask-2"
             fill="white">
            <use
               xlink:href="#path-1"
               id="use15"
               x="0"
               y="0"
               width="100%"
               height="100%" />
          </mask>
          <use
             id="Clip-12"
             class="color-i-fill"
             xlink:href="#path-1"
             style="fill:#fe5e00"
             x="0"
             y="0"
             width="100%"
             height="100%" />
        </g>
        <g
           id="Group-18"
           transform="translate(98,110)"
           style="stroke:#fefefe;stroke-width:2;stroke-linecap:round;stroke-linejoin:round">
          <path
             d="m 32.2954,21.7427 c 0,0.411 -0.334,0.744 -0.744,0.744 H 1.4104 c -0.411,0 -0.744,-0.333 -0.744,-0.744 V 1.3197 c 0,-0.411 0.333,-0.745 0.744,-0.745 h 30.141 c 0.41,0 0.744,0.334 0.744,0.745 z"
             id="Stroke-14"
             inkscape:connector-curvature="0" />
          <polyline
             id="Stroke-16"
             points="32.2026 1.5024 16.4806 17.2254 0.7576 1.5024" />
        </g>
      </g>
    </g>
  </g>
</svg>
